src/2-landmarks/assistant--receive.svg

<svg width="1300" height="1000" viewBox="0 0 1300 1000" fill="none" xmlns="http://www.w3.org/2000/svg"><path fill-rule="evenodd" clip-rule="evenodd" d="M989.42 336.086c-3.769 1.408-10.806 1.91-12.648 1.914 0 0-8.301-.069-13.136-1.914-5.448-2.079-8.483-4.109-12.162-8.575-2.489-3.022-4.438-8.223-5.321-10.853-.362-1.079-.612-2.188-.802-3.31l-4.093-24.154s-.495-3.492-.486-5.742c.019-5.351.745-8.493 2.918-13.398 2.233-5.038 4.185-7.735 8.271-11.484 4.355-3.996 7.495-5.742 13.135-7.625 4.379-1.462 7.051-1.907 11.676-1.945 4.962.167 6.81.479 11.547 1.945 4.741 1.577 9.581 4.373 13.261 7.625 3.69 3.252 6.26 7.101 8.27 11.484s2.92 8.615 2.92 13.398c0 1.803-.2 3.959-.49 5.742l-4.86 23.833c-.25 1.229-.57 2.441-1.01 3.617-1.04 2.793-3.2 8.177-5.31 10.829-2.929 3.676-7.171 6.929-11.68 8.613Zm-2.459-6.699c-3.036 1.186-8.705 1.609-10.189 1.613 0 0-6.687-.058-10.582-1.613-4.388-1.752-6.833-3.462-9.797-7.226-1.948-2.474-3.485-6.68-4.223-8.951-.338-1.039-.567-2.105-.742-3.184l-3.265-20.155s-.398-2.943-.391-4.839c.015-4.509.6-7.156 2.351-11.29 1.798-4.246 3.371-6.518 6.662-9.677 3.509-3.368 6.038-4.839 10.581-6.426 3.528-1.232 5.68-1.607 9.406-1.639 3.997.141 5.486.403 9.302 1.639 3.819 1.329 7.717 3.685 10.684 6.426 2.967 2.74 5.042 5.983 6.662 9.677s2.35 7.26 2.35 11.29c0 1.52-.16 3.337-.39 4.839l-3.87 19.862c-.24 1.184-.53 2.351-.94 3.486-.866 2.407-2.555 6.742-4.204 8.91-2.356 3.098-5.774 5.839-9.405 7.258ZM1056 376c17.52 36.035 23.43 91.5 23.43 93.162 0 43.838-3.65 103.208-3.65 103.208l1.52 32.227c.59 12.506-11.24 21.922-23.29 18.546a.936.936 0 0 1-.65-.657l-5.86-22.986L1054 718l-2 156.5 16.2 7.658A19.735 19.735 0 0 1 1079.5 900H1300v100H0V900h871.496v-1.093a20.001 20.001 0 0 1 12.402-18.501L899.496 874l-1.5-156L911.5 492.5l-79 43-41.062 2.074a11.915 11.915 0 0 1-11.631-7.397c-3.613-8.852 1.356-18.867 10.591-21.345L814 502.5l51.594-38.096s14.838-53.082 30.279-89.186c15.902-27.681 45.969-33.623 82.944-33.197 38.123.434 62.133 4.804 77.183 33.979Zm7.86 511.811A13.546 13.546 0 0 1 1071.5 900h-76.891l1.991-23.979a4.287 4.287 0 0 1-4.316-4.31l.726-127.575-11.912-145.779a4.503 4.503 0 0 0-8.974-.044l-13.379 145.808 2.158 126.82a4.964 4.964 0 0 1-4.993 5.049L958 900h-77.833l.065-3.851a10 10 0 0 1 6.052-9.022l21.216-9.112-2.5-161.007 9.5-143.153 3-55.855 3-30.5 4.898-68.066a1.32 1.32 0 0 0-2.609-.351L910 483.5l-80.218 43.993-37.424 2.694a6.293 6.293 0 0 1-2.424-12.252L817 509l56-39.5s13.648-53.646 28.22-88.985c15.005-27.095 42.378-30.911 77.27-30.495 35.97.426 58.76 1.938 72.96 30.495 16.54 35.272 20.98 91.955 20.98 91.955l-3.44 101.023 2.16 30.937c.46 6.596-4.77 12.2-11.38 12.2a.562.562 0 0 1-.55-.425L1048 573.493l-8.49-104.402-6.35-49.12a2.244 2.244 0 0 0-2.22-1.96 2.252 2.252 0 0 0-2.25 2.425L1034 488l3 30 8.84 199.02-2.16 161.021 20.18 9.77ZM988.996 882l-1.5 18h-22.5l-1.5-18a9.97 9.97 0 0 0 4.439-8.408L966.496 746l9.5-125 9 125v128a10 10 0 0 0 4 8Z" fill="#000"/></svg>

<svg width="1300" height="1000" viewBox="0 0 1300 1000" fill="none" xmlns="http://www.w3.org/2000/svg">
<path fill-rule="evenodd" clip-rule="evenodd" d="M989.42 336.086C985.651 337.494 978.614 337.996 976.772 338C976.772 338 968.471 337.931 963.636 336.086C958.188 334.007 955.153 331.977 951.474 327.511C948.985 324.489 947.036 319.288 946.153 316.658C945.791 315.579 945.541 314.47 945.351 313.348L941.258 289.194C941.258 289.194 940.763 285.702 940.772 283.452C940.791 278.101 941.517 274.959 943.69 270.054C945.923 265.016 947.875 262.319 951.961 258.57C956.316 254.574 959.456 252.828 965.096 250.945C969.475 249.483 972.147 249.038 976.772 249C981.734 249.167 983.582 249.479 988.319 250.945C993.06 252.522 997.9 255.318 1001.58 258.57C1005.27 261.822 1007.84 265.671 1009.85 270.054C1011.86 274.437 1012.77 278.669 1012.77 283.452C1012.77 285.255 1012.57 287.411 1012.28 289.194L1007.42 313.027C1007.17 314.256 1006.85 315.468 1006.41 316.644C1005.37 319.437 1003.21 324.821 1001.1 327.473C998.171 331.149 993.929 334.402 989.42 336.086ZM986.961 329.387C983.925 330.573 978.256 330.996 976.772 331C976.772 331 970.085 330.942 966.19 329.387C961.802 327.635 959.357 325.925 956.393 322.161C954.445 319.687 952.908 315.481 952.17 313.21C951.832 312.171 951.603 311.105 951.428 310.026L948.163 289.871C948.163 289.871 947.765 286.928 947.772 285.032C947.787 280.523 948.372 277.876 950.123 273.742C951.921 269.496 953.494 267.224 956.785 264.065C960.294 260.697 962.823 259.226 967.366 257.639C970.894 256.407 973.046 256.032 976.772 256C980.769 256.141 982.258 256.403 986.074 257.639C989.893 258.968 993.791 261.324 996.758 264.065C999.725 266.805 1001.8 270.048 1003.42 273.742C1005.04 277.436 1005.77 281.002 1005.77 285.032C1005.77 286.552 1005.61 288.369 1005.38 289.871L1001.51 309.733C1001.27 310.917 1000.98 312.084 1000.57 313.219C999.704 315.626 998.015 319.961 996.366 322.129C994.01 325.227 990.592 327.968 986.961 329.387Z" fill="black"/>
<path fill-rule="evenodd" clip-rule="evenodd" d="M1056 376C1073.52 412.035 1079.43 467.5 1079.43 469.162C1079.43 513 1075.78 572.37 1075.78 572.37L1077.3 604.597C1077.89 617.103 1066.06 626.519 1054.01 623.143C1053.69 623.055 1053.45 622.804 1053.36 622.486L1047.5 599.5L1054 718L1052 874.5L1068.2 882.158C1075.1 885.42 1079.5 892.368 1079.5 900H1300V1000H0V900H871.496V898.907C871.496 890.796 876.395 883.488 883.898 880.406L899.496 874L897.996 718L911.5 492.5L832.5 535.5L791.438 537.574C786.384 537.829 781.72 534.863 779.807 530.177C776.194 521.325 781.163 511.31 790.398 508.832L814 502.5L865.594 464.404C865.594 464.404 880.432 411.322 895.873 375.218C911.775 347.537 941.842 341.595 978.817 342.021C1016.94 342.455 1040.95 346.825 1056 376ZM1063.86 887.811C1068.53 890.073 1071.5 894.808 1071.5 900H994.609L996.6 876.021C994.212 876.037 992.271 874.099 992.284 871.711L993.01 744.136L981.098 598.357C980.907 596.02 978.954 594.221 976.609 594.221C974.281 594.221 972.337 595.995 972.124 598.313L958.745 744.121L960.903 870.941C960.951 873.727 958.696 876.007 955.91 875.99L958 900H880.167L880.232 896.149C880.297 892.213 882.667 888.681 886.284 887.127L907.5 878.015L905 717.008L914.5 573.855L917.5 518L920.5 487.5L925.398 419.434C925.453 418.67 924.848 418.02 924.082 418.02C923.453 418.02 922.911 418.465 922.789 419.083L910 483.5L829.782 527.493L792.358 530.187C788.935 530.433 785.946 527.891 785.639 524.473C785.377 521.561 787.157 518.852 789.934 517.935L817 509L873 469.5C873 469.5 886.648 415.854 901.22 380.515C916.225 353.42 943.598 349.604 978.49 350.02C1014.46 350.446 1037.25 351.958 1051.45 380.515C1067.99 415.787 1072.43 472.47 1072.43 472.47L1068.99 573.493L1071.15 604.43C1071.61 611.026 1066.38 616.63 1059.77 616.63C1059.51 616.63 1059.28 616.456 1059.22 616.205L1048 573.493L1039.51 469.091L1033.16 419.971C1033.02 418.854 1032.07 418.017 1030.94 418.011C1029.63 418.005 1028.59 419.124 1028.69 420.436L1034 488L1037 518L1045.84 717.02L1043.68 878.041L1063.86 887.811ZM988.996 882L987.496 900H964.996L963.496 882C966.303 880.129 967.973 876.965 967.935 873.592L966.496 746L975.996 621L984.996 746V874C984.996 877.148 986.478 880.111 988.996 882Z" fill="black"/>
</svg>
